src/images_karasa_jaga_svg/cmd/32/hidewhitespace.svg

<svg height="32" viewBox="0 0 32 32" width="32" xmlns="http://www.w3.org/2000/svg" xmlns:xlink="http://www.w3.org/1999/xlink"><radialGradient id="a" cx="129.3913" cy="145.48148" fx="129.3913" fy="145.48148" gradientTransform="matrix(.9787234 0 0 .9818182 1.361704 61.16364)" gradientUnits="userSpaceOnUse" r="139.55859" xlink:href="#b"/><radialGradient id="b" cx="102" cy="112.3047" gradientUnits="userSpaceOnUse" r="139.55859"><stop offset="0" stop-color="#c3c4c6"/><stop offset=".11366145" stop-color="#c5c6c7"/><stop offset=".20296688" stop-color="#ececec"/><stop offset=".2363" stop-color="#fafafa"/><stop offset=".2722" stop-color="#fff"/><stop offset=".5313" stop-color="#fafafa"/><stop offset=".8449" stop-color="#ebecec"/><stop offset="1" stop-color="#e1e2e3"/></radialGradient><radialGradient id="c" cx="136.000002" cy="200.000003" fx="136.000002" fy="200.000003" gradientUnits="userSpaceOnUse" r="139.5585" xlink:href="#d"/><radialGradient id="d" cx="102" cy="112.3047" gradientUnits="userSpaceOnUse" r="139.5585"><stop offset="0" stop-color="#00537d"/><stop offset=".0151" stop-color="#186389"/><stop offset=".0558" stop-color="#558ca8"/><stop offset=".0964" stop-color="#89afc3"/><stop offset=".1357" stop-color="#b3ccd8"/><stop offset=".1737" stop-color="#d4e2e9"/><stop offset=".2099" stop-color="#ecf2f5"/><stop offset=".2435" stop-color="#fafcfd"/><stop offset=".2722" stop-color="#fff"/></radialGradient><filter id="e"><feGaussianBlur stdDeviation="1.0394514"/></filter><filter id="f"><feGaussianBlur stdDeviation=".50063244"/></filter><radialGradient id="g" cx="136.000002" cy="120.000003" fx="136.000002" fy="120.000003" gradientUnits="userSpaceOnUse" r="139.5585" xlink:href="#d"/><radialGradient id="h" cx="129.3913" cy="145.48148" fx="129.3913" fy="145.48148" gradientTransform="matrix(.9787234 0 0 .9818182 1.361704 -18.83636)" gradientUnits="userSpaceOnUse" r="139.55859" xlink:href="#b"/><linearGradient id="i" gradientTransform="matrix(0 .49928121 .49928121 0 35.504266 79.472236)" gradientUnits="userSpaceOnUse" x1="113.15723" x2="51.728821" y1="25.786163" y2="25.786163"><stop offset="0" stop-color="#0968ef"/><stop offset="1" stop-color="#aecffc"/></linearGradient><clipPath id="j"><rect height="63" rx=".000002" ry="1.567624" width="110" x="10"/></clipPath><clipPath id="k"><rect height="68" rx=".000002" ry="1.61739" width="104" x="12" y="60"/></clipPath><g transform="scale(.25)"><g clip-path="url(#j)"><path d="m23 20.586207.04083 57.931075 95.37318.186c.37501-.375.586-.884.586-1.414l-.00001-56.703075z" filter="url(#e)" opacity=".306849" transform="matrix(1.0416667 0 0 1.0357143 -9.958333 -23.32153)"/><path d="m24.919999 24.448377v52.137935h91.574001c.375-.375.586-.884.586-1.414v-50.723935z" filter="url(#f)" opacity=".89589" transform="matrix(1.0416667 0 0 1.0357143 -9.958333 -23.32153)"/><path d="m23 21.551724.04087 56.965548 95.37318.47566c.375-.375.586-.88401.586-1.41401v-56.027163h-95.999996l-.00005-.000035z" filter="url(#e)" opacity=".306849" transform="matrix(1.0416667 0 0 1.0357143 -9.958333 -23.32153)"/><path d="m16.000002.000004v55.999996h95.413988c.375-.375.586-.884.586-1.414v-54.585996z" fill="url(#g)"/><path d="m19 0v53.017578c0 .54197.43924.982422.978516.982422l89.734374-.01953c.18303-.183601.28711-.435141.28711-.693361v-53.287109z" fill="url(#h)"/></g><g clip-path="url(#k)"><path d="m23 7.0689658.04083 65.6552132 95.37318.186c.37501-.375.586-.884.586-1.414l-.00001-64.4272132z" filter="url(#e)" opacity=".306849" transform="matrix(1.0416667 0 0 1.0357143 -9.958333 56.67847)"/><path d="m24.919999 10.931136v59.862073h91.574001c.375-.375.586-.884.586-1.414v-58.448073z" filter="url(#f)" opacity=".89589" transform="matrix(1.0416667 0 0 1.0357143 -9.958333 56.67847)"/><path d="m23 8.0344828.04087 64.6896862 95.37318.47566c.375-.375.586-.88401.586-1.41401v-63.7513012h-95.999996l-.00005-.000035z" filter="url(#e)" opacity=".306849" transform="matrix(1.0416667 0 0 1.0357143 -9.958333 56.67847)"/><path d="m16.000002 66.000004v63.999996h95.413988c.375-.375.586-.884.586-1.414v-62.585996z" fill="url(#c)"/><path d="m109.02148 70-89.042964.0078c-.539276.000012-.978516.439499-.978516.980481v56.029299c0 .54197.43924.98242.978516.98242l89.734374-.0195c.18303-.18363.28711-.43517.28711-.69339v-56.304688c0-.540982-.43827-.982422-.97852-.982422z" fill="url(#a)"/></g><g fill-rule="evenodd"><g transform="matrix(1.44 0 0 1.44 -7.27636 -150.17412)"><path d="m56.890625.47460938a4.3279265 4.3279265 0 0 0 -.123047 1.00195312v26.5800785l-1.951172-1.271485a4.3279265 4.3279265 0 0 0 -5.445312.591797l-2.833985 2.878906a4.3279265 4.3279265 0 0 0 -.240234 5.804688l14.355469 17.236328a4.3279265 4.3279265 0 0 0 3.427734 1.554687 4.3279265 4.3279265 0 0 0 3.21875-1.550781l14.398438-17.234375a4.3279265 4.3279265 0 0 0 -.330078-5.90625l-3.015626-2.878906a4.3279265 4.3279265 0 0 0 -5.376953-.478516l-1.789062 1.183594v-26.5097655a4.3279265 4.3279265 0 0 0 -.123047-1.00195312z" fill="#fff" opacity=".760563" transform="matrix(.69444444 0 0 .69444444 5.053028 104.28758)"/><path d="m49.484146 139.38599-9.98563-11.98275 1.98457-1.98456 6.00393 3.89376.006-24h3.99425l-.006 24 5.90345-3.89376 2.08505 1.98456-9.98563 11.98275z" fill="url(#i)"/></g><g transform="matrix(1.44 0 0 -1.44 -7.27636 272.17412)"><path d="m9.9277344 54.933594a3.0055045 3.0055045 0 0 0 -2.234375 1.076172l-10 11.96875a3.0055045 3.0055045 0 0 0 .2304687 4.101562l2.09375003 2a3.0055045 3.0055045 0 0 0 3.73437497.332031l1.2421875-.822265v18.410156a3.0055045 3.0055045 0 0 0 3.0058594 3.005859h4a3.0055045 3.0055045 0 0 0 3.005859-3.005859v-18.458984l1.355469.882812a3.0055045 3.0055045 0 0 0 3.78125-.410156l1.96875-2a3.0055045 3.0055045 0 0 0 .166016-4.03125l-9.96875-11.96875a3.0055045 3.0055045 0 0 0 -2.3808596-1.080078z" fill="#fff" opacity=".760563" transform="matrix(-1 0 0 -1 59.481266 197.312436)"/><path d="m49.484146 139.38599-9.98563-11.98275 1.98457-1.98456 6.00393 3.89376.006-24h3.99425l-.006 24 5.90345-3.89376 2.08505 1.98456-9.98563 11.98275z" fill="url(#i)"/></g></g></g></svg>

<?xml version="1.0" encoding="UTF-8" standalone="no"?>
<!-- Created with Inkscape (http://www.inkscape.org/) -->

<svg
   xmlns:dc="http://purl.org/dc/elements/1.1/"
   xmlns:cc="http://creativecommons.org/ns#"
   xmlns:rdf="http://www.w3.org/1999/02/22-rdf-syntax-ns#"
   xmlns:svg="http://www.w3.org/2000/svg"
   xmlns="http://www.w3.org/2000/svg"
   xmlns:xlink="http://www.w3.org/1999/xlink"
   xmlns:sodipodi="http://sodipodi.sourceforge.net/DTD/sodipodi-0.dtd"
   xmlns:inkscape="http://www.inkscape.org/namespaces/inkscape"
   version="1.1"
   id="svg2"
   width="128"
   height="128"
   viewBox="0 0 128 128"
   sodipodi:docname="hidewhitespace.svg"
   inkscape:export-filename="/home/rizmut/Dokumen/Rizmut/Github/libreoffice-style-karasa-jaga/build/images_karasa_Jaga/cmd/32/hidewhitespace.png"
   inkscape:export-xdpi="24"
   inkscape:export-ydpi="24"
   inkscape:version="0.92.2 (unknown)">
  <defs
     id="defs6">
    <radialGradient
       inkscape:collect="always"
       xlink:href="#radialGradient3805"
       id="radialGradient2272"
       gradientUnits="userSpaceOnUse"
       gradientTransform="matrix(0.9787234,0,0,0.9818182,1.3617041,61.16364)"
       cx="129.3913"
       cy="145.48148"
       r="139.55859"
       fx="129.3913"
       fy="145.48148" />
    <radialGradient
       gradientUnits="userSpaceOnUse"
       r="139.55859"
       cy="112.3047"
       cx="102"
       id="radialGradient3805">
      <stop
         id="stop3807"
         style="stop-color:#c3c4c6;stop-opacity:1"
         offset="0" />
      <stop
         id="stop3809"
         style="stop-color:#c5c6c7;stop-opacity:1"
         offset="0.11366145" />
      <stop
         id="stop3811"
         style="stop-color:#ECECEC"
         offset="0.20296688" />
      <stop
         id="stop3813"
         style="stop-color:#FAFAFA"
         offset="0.2363" />
      <stop
         id="stop3815"
         style="stop-color:#FFFFFF"
         offset="0.2722" />
      <stop
         id="stop3817"
         style="stop-color:#FAFAFA"
         offset="0.5313" />
      <stop
         id="stop3819"
         style="stop-color:#EBECEC"
         offset="0.8449" />
      <stop
         id="stop3821"
         style="stop-color:#E1E2E3"
         offset="1" />
    </radialGradient>
    <radialGradient
       inkscape:collect="always"
       xlink:href="#XMLID_7_"
       id="radialGradient2275"
       gradientUnits="userSpaceOnUse"
       gradientTransform="translate(1.9844182e-6,60.000003)"
       cx="136"
       cy="140"
       r="139.5585"
       fx="136"
       fy="140" />
    <radialGradient
       id="XMLID_7_"
       cx="102"
       cy="112.3047"
       r="139.5585"
       gradientUnits="userSpaceOnUse">
      <stop
         offset="0"
         style="stop-color:#00537D"
         id="stop16" />
      <stop
         offset="0.0151"
         style="stop-color:#186389"
         id="stop18" />
      <stop
         offset="0.0558"
         style="stop-color:#558CA8"
         id="stop20" />
      <stop
         offset="0.0964"
         style="stop-color:#89AFC3"
         id="stop22" />
      <stop
         offset="0.1357"
         style="stop-color:#B3CCD8"
         id="stop24" />
      <stop
         offset="0.1737"
         style="stop-color:#D4E2E9"
         id="stop26" />
      <stop
         offset="0.2099"
         style="stop-color:#ECF2F5"
         id="stop28" />
      <stop
         offset="0.2435"
         style="stop-color:#FAFCFD"
         id="stop30" />
      <stop
         offset="0.2722"
         style="stop-color:#FFFFFF"
         id="stop32" />
    </radialGradient>
    <filter
       inkscape:collect="always"
       id="filter3241">
      <feGaussianBlur
         inkscape:collect="always"
         stdDeviation="1.0394514"
         id="feGaussianBlur3243" />
    </filter>
    <filter
       inkscape:collect="always"
       id="filter3772">
      <feGaussianBlur
         inkscape:collect="always"
         stdDeviation="0.50063244"
         id="feGaussianBlur3774" />
    </filter>
    <radialGradient
       inkscape:collect="always"
       xlink:href="#XMLID_7_"
       id="radialGradient10335"
       gradientUnits="userSpaceOnUse"
       gradientTransform="translate(1.9844182e-6,-19.999997)"
       cx="136"
       cy="140"
       fx="136"
       fy="140"
       r="139.5585" />
    <radialGradient
       inkscape:collect="always"
       xlink:href="#radialGradient3805"
       id="radialGradient10337"
       gradientUnits="userSpaceOnUse"
       gradientTransform="matrix(0.9787234,0,0,0.9818182,1.3617041,-18.83636)"
       cx="129.3913"
       cy="145.48148"
       fx="129.3913"
       fy="145.48148"
       r="139.55859" />
    <linearGradient
       inkscape:collect="always"
       xlink:href="#linearGradient2399-7-0"
       id="linearGradient15102"
       gradientUnits="userSpaceOnUse"
       gradientTransform="matrix(0,0.49928121,0.49928121,0,35.504266,79.472236)"
       x1="113.15723"
       y1="25.786163"
       x2="51.728821"
       y2="25.786163" />
    <linearGradient
       id="linearGradient2399-7-0">
      <stop
         id="stop2401-8-2"
         offset="0"
         style="stop-color:#0968ef;stop-opacity:1;" />
      <stop
         id="stop2403-8-2"
         offset="1"
         style="stop-color:#aecffc;stop-opacity:1;" />
    </linearGradient>
    <linearGradient
       inkscape:collect="always"
       xlink:href="#linearGradient2399-7-0"
       id="linearGradient10376"
       gradientUnits="userSpaceOnUse"
       gradientTransform="matrix(0,0.49928121,0.49928121,0,35.504266,79.472236)"
       x1="113.15723"
       y1="25.786163"
       x2="51.728821"
       y2="25.786163" />
    <clipPath
       clipPathUnits="userSpaceOnUse"
       id="clipPath887">
      <rect
         style="opacity:1;vector-effect:none;fill:#ff0000;fill-opacity:1;stroke:none;stroke-width:2.95348549;stroke-linecap:butt;stroke-linejoin:miter;stroke-miterlimit:4;stroke-dasharray:none;stroke-dashoffset:0;stroke-opacity:0.68627451"
         id="rect889"
         width="110"
         height="63"
         x="10"
         y="2.220446e-16"
         rx="2.40296e-06"
         ry="1.5676242" />
    </clipPath>
    <clipPath
       clipPathUnits="userSpaceOnUse"
       id="clipPath893">
      <rect
         style="opacity:1;vector-effect:none;fill:#ff0000;fill-opacity:1;stroke:none;stroke-width:3;stroke-linecap:butt;stroke-linejoin:miter;stroke-miterlimit:4;stroke-dasharray:none;stroke-dashoffset:0;stroke-opacity:0.68627451"
         id="rect895"
         width="104"
         height="68"
         x="12"
         y="60"
         rx="2.40296e-06"
         ry="1.61739" />
    </clipPath>
  </defs>
  <sodipodi:namedview
     pagecolor="#ffffff"
     bordercolor="#666666"
     borderopacity="1"
     objecttolerance="10"
     gridtolerance="10"
     guidetolerance="10"
     inkscape:pageopacity="0"
     inkscape:pageshadow="2"
     inkscape:window-width="1366"
     inkscape:window-height="706"
     id="namedview4"
     showgrid="true"
     inkscape:snap-page="true"
     inkscape:snap-global="true"
     inkscape:zoom="2.8284272"
     inkscape:cx="61.94602"
     inkscape:cy="46.618131"
     inkscape:window-x="0"
     inkscape:window-y="0"
     inkscape:window-maximized="1"
     inkscape:current-layer="svg2">
    <inkscape:grid
       type="xygrid"
       id="grid860"
       spacingx="4"
       spacingy="4"
       empspacing="2" />
  </sodipodi:namedview>
  <g
     id="g883"
     clip-path="url(#clipPath887)">
    <path
       sodipodi:nodetypes="cccccc"
       transform="matrix(1.0416667,0,0,1.0357143,-9.9583333,-23.32153)"
       style="opacity:0.30684934;fill:#000000;fill-opacity:1;filter:url(#filter3241)"
       d="m 23,20.586207 0.04083,57.931075 95.37318,0.186 c 0.37501,-0.375 0.586,-0.884 0.586,-1.414 L 119,20.586207 Z"
       id="path10325"
       inkscape:connector-curvature="0" />
    <path
       sodipodi:nodetypes="cccccc"
       transform="matrix(1.0416667,0,0,1.0357143,-9.9583333,-23.32153)"
       style="opacity:0.89589042;fill:#000000;fill-opacity:1;filter:url(#filter3772)"
       d="M 24.919999,24.448377 V 76.586312 H 116.494 c 0.375,-0.375 0.586,-0.884 0.586,-1.414 V 24.448377 Z"
       id="path10327"
       inkscape:connector-curvature="0" />
    <path
       id="path10329"
       d="m 23,21.551724 0.04087,56.965548 95.37318,0.47566 c 0.375,-0.375 0.586,-0.88401 0.586,-1.41401 V 21.551759 H 23.000054 l -5e-5,-3.5e-5 z"
       style="opacity:0.30684934;fill:#000000;fill-opacity:1;filter:url(#filter3241)"
       transform="matrix(1.0416667,0,0,1.0357143,-9.9583333,-23.32153)"
       sodipodi:nodetypes="cccccccc"
       inkscape:connector-curvature="0" />
    <path
       style="fill:url(#radialGradient10335)"
       d="M 16.000002,4e-6 V 56 h 95.413988 c 0.375,-0.375 0.586,-0.884 0.586,-1.414 V 4e-6 Z"
       id="path10331"
       sodipodi:nodetypes="cccccc"
       inkscape:connector-curvature="0" />
    <path
       id="path10333"
       d="M 19 0 L 19 53.017578 C 19 53.559548 19.43924 54 19.978516 54 L 109.71289 53.980469 C 109.89592 53.796869 110 53.545329 110 53.287109 L 110 0 L 19 0 z "
       style="fill:url(#radialGradient10337);fill-opacity:1" />
  </g>
  <g
     id="g876"
     clip-path="url(#clipPath893)">
    <path
       inkscape:connector-curvature="0"
       id="path4081"
       d="m 23,7.0689658 0.04083,65.6552132 95.37318,0.186 c 0.37501,-0.375 0.586,-0.884 0.586,-1.414 L 119,7.0689658 Z"
       style="opacity:0.30684934;fill:#000000;fill-opacity:1;filter:url(#filter3241)"
       transform="matrix(1.0416667,0,0,1.0357143,-9.9583333,56.67847)"
       sodipodi:nodetypes="cccccc" />
    <path
       inkscape:connector-curvature="0"
       id="path3726"
       d="M 24.919999,10.931136 V 70.793209 H 116.494 c 0.375,-0.375 0.586,-0.884 0.586,-1.414 V 10.931136 Z"
       style="opacity:0.89589042;fill:#000000;fill-opacity:1;filter:url(#filter3772)"
       transform="matrix(1.0416667,0,0,1.0357143,-9.9583333,56.67847)"
       sodipodi:nodetypes="cccccc" />
    <path
       inkscape:connector-curvature="0"
       sodipodi:nodetypes="cccccccc"
       transform="matrix(1.0416667,0,0,1.0357143,-9.9583333,56.67847)"
       style="opacity:0.30684934;fill:#000000;fill-opacity:1;filter:url(#filter3241)"
       d="m 23,8.0344828 0.04087,64.6896862 95.37318,0.47566 c 0.375,-0.375 0.586,-0.88401 0.586,-1.41401 V 8.0345178 H 23.000054 l -5e-5,-3.5e-5 z"
       id="path6594" />
    <path
       inkscape:connector-curvature="0"
       sodipodi:nodetypes="cccccc"
       id="path34"
       d="M 16.000002,66.000004 V 130 h 95.413988 c 0.375,-0.375 0.586,-0.884 0.586,-1.414 V 66.000004 Z"
       style="fill:url(#radialGradient2275)" />
    <path
       id="path59"
       d="M 109.02148 70 L 19.978516 70.007812 C 19.43924 70.007812 19 70.447299 19 70.988281 L 19 127.01758 C 19 127.55955 19.43924 128 19.978516 128 L 109.71289 127.98047 C 109.89592 127.79687 110 127.54533 110 127.28711 L 110 70.982422 C 110 70.44144 109.56173 70 109.02148 70 z "
       style="fill:url(#radialGradient2272);fill-opacity:1" />
  </g>
  <g
     id="g10357"
     transform="matrix(1.44,0,0,1.44,-7.2763599,-150.17412)">
    <path
       style="opacity:0.76056339;fill:#ffffff;fill-opacity:1;fill-rule:evenodd;stroke:none;stroke-width:1.44000006"
       d="M 56.890625 0.47460938 A 4.3279265 4.3279265 0 0 0 56.767578 1.4765625 L 56.767578 28.056641 L 54.816406 26.785156 A 4.3279265 4.3279265 0 0 0 49.371094 27.376953 L 46.537109 30.255859 A 4.3279265 4.3279265 0 0 0 46.296875 36.060547 L 60.652344 53.296875 A 4.3279265 4.3279265 0 0 0 64.080078 54.851562 A 4.3279265 4.3279265 0 0 0 67.298828 53.300781 L 81.697266 36.066406 A 4.3279265 4.3279265 0 0 0 81.367188 30.160156 L 78.351562 27.28125 A 4.3279265 4.3279265 0 0 0 72.974609 26.802734 L 71.185547 27.986328 L 71.185547 1.4765625 A 4.3279265 4.3279265 0 0 0 71.0625 0.47460938 L 56.890625 0.47460938 z "
       transform="matrix(0.69444444,0,0,0.69444444,5.0530277,104.28758)"
       id="path15108" />
    <path
       style="fill:url(#linearGradient15102);fill-opacity:1;fill-rule:evenodd;stroke:none"
       d="m 49.484146,139.38599 -9.98563,-11.98275 1.98457,-1.98456 6.00393,3.89376 0.006,-24 h 3.99425 l -0.006,24 5.90345,-3.89376 2.08505,1.98456 -9.98563,11.98275 z"
       id="path15100"
       sodipodi:nodetypes="ccccccccccc"
       inkscape:connector-curvature="0" />
  </g>
  <g
     transform="matrix(1.44,0,0,-1.44,-7.2763599,272.17412)"
     id="g10374">
    <path
       sodipodi:type="inkscape:offset"
       inkscape:radius="3.005204"
       inkscape:original="M 10 57.9375 L 0 69.90625 L 2.09375 71.90625 L 8 68 L 8 92 L 12 92 L 12 68 L 18 71.90625 L 19.96875 69.90625 L 10 57.9375 z "
       style="opacity:0.76056339;fill:#ffffff;fill-opacity:1;fill-rule:evenodd;stroke:none"
       id="path10370"
       d="m 9.9277344,54.933594 a 3.0055045,3.0055045 0 0 0 -2.234375,1.076172 l -10,11.96875 a 3.0055045,3.0055045 0 0 0 0.2304687,4.101562 l 2.09375003,2 A 3.0055045,3.0055045 0 0 0 3.7519531,74.412109 L 4.9941406,73.589844 V 92 A 3.0055045,3.0055045 0 0 0 8,95.005859 h 4 A 3.0055045,3.0055045 0 0 0 15.005859,92 V 73.541016 l 1.355469,0.882812 a 3.0055045,3.0055045 0 0 0 3.78125,-0.410156 l 1.96875,-2 a 3.0055045,3.0055045 0 0 0 0.166016,-4.03125 l -9.96875,-11.96875 A 3.0055045,3.0055045 0 0 0 9.9277344,54.933594 Z"
       transform="rotate(180,29.740633,98.656218)" />
    <path
       inkscape:connector-curvature="0"
       sodipodi:nodetypes="ccccccccccc"
       id="path10372"
       d="m 49.484146,139.38599 -9.98563,-11.98275 1.98457,-1.98456 6.00393,3.89376 0.006,-24 h 3.99425 l -0.006,24 5.90345,-3.89376 2.08505,1.98456 -9.98563,11.98275 z"
       style="fill:url(#linearGradient10376);fill-opacity:1;fill-rule:evenodd;stroke:none" />
  </g>
  <metadata
     id="metadata10397">
    <rdf:RDF>
      <cc:Work
         rdf:about="">
        <dc:title></dc:title>
        <dc:format>image/svg+xml</dc:format>
        <dc:type
           rdf:resource="http://purl.org/dc/dcmitype/StillImage" />
      </cc:Work>
    </rdf:RDF>
  </metadata>
</svg>
